icon/pk/usb-micro-one.svg

<svg viewBox="0 0 48 48" fill="none" xmlns="http://www.w3.org/2000/svg" height="1em" width="1em">
  <path d="M4 18C4 16.3431 5.34315 15 7 15H41C42.6569 15 44 16.3431 44 18V30C44 31.6569 42.6569 33 41 33H7C5.34315 33 4 31.6569 4 30V18Z" fill="#2F88FF" stroke="black" stroke-width="4" stroke-linecap="round" stroke-linejoin="round"/>
  <path d="M11 15H37V23H11V15Z" fill="#2F88FF" stroke="white" stroke-width="4" stroke-linecap="round" stroke-linejoin="round"/>
  <path d="M21 23V21" stroke="white" stroke-width="4" stroke-linecap="round" stroke-linejoin="round"/>
  <path d="M27 23V21" stroke="white" stroke-width="4" stroke-linecap="round" stroke-linejoin="round"/>
  <path d="M32 23V21" stroke="white" stroke-width="4" stroke-linecap="round" stroke-linejoin="round"/>
  <path d="M16 23V21" stroke="white" stroke-width="4" stroke-linecap="round" stroke-linejoin="round"/>
  <path d="M8 15L40 15" stroke="black" stroke-width="4" stroke-linecap="round" stroke-linejoin="round"/>
</svg>

<svg width="48" height="48" fill="none" xmlns="http://www.w3.org/2000/svg"><path d="M4 18a3 3 0 0 1 3-3h34a3 3 0 0 1 3 3v12a3 3 0 0 1-3 3H7a3 3 0 0 1-3-3V18Z" fill="#2F88FF" stroke="#000" stroke-width="4" stroke-linecap="round" stroke-linejoin="round"/><path d="M11 15h26v8H11v-8Z" fill="#2F88FF" stroke="#fff" stroke-width="4" stroke-linecap="round" stroke-linejoin="round"/><path d="M21 23v-2M27 23v-2M32 23v-2M16 23v-2" stroke="#fff" stroke-width="4" stroke-linecap="round" stroke-linejoin="round"/><path d="M8 15h32" stroke="#000" stroke-width="4" stroke-linecap="round" stroke-linejoin="round"/></svg>
